X:329
T: Peggy Bawne
N: "with the hornpipe and the jigg"
N: O'Farrell's Pocket Companion v.4 (Sky ed. p.144)
N: "Irish"
M: 3/4
R: waltz
L: 1/8
Q: 180
K: G
de/f/| g2 bgfd| gec>d BA| G>A Bdef| a2 {f}g2 :|
ga| b2b2ab/c'/ | bge2fg| agab c'b/a/| g2f2de/f/|
g2 bgaf| gecdBA| GABdef| {a} g4 :|
